static/img/kroki/4cb5b8a8ecb75fea9e40a3fd846e1723.svg

<?xml version="1.0" encoding="us-ascii" standalone="no"?><svg xmlns="http://www.w3.org/2000/svg" xmlns:xlink="http://www.w3.org/1999/xlink" contentStyleType="text/css" height="573px" preserveAspectRatio="none" style="width:379px;height:573px;" version="1.1" viewBox="0 0 379 573" width="379px" zoomAndPan="magnify"><defs/><g><!--class kubernetes_namespace--><g id="elem_kubernetes_namespace"><rect codeLine="23" fill="#3D176E" height="39.7891" id="kubernetes_namespace" rx="2.5" ry="2.5" style="stroke:#000D19;stroke-width:0.5;" width="239" x="60.5" y="528.16"/><ellipse cx="75.5" cy="548.0545" fill="#ADD1B2" rx="11" ry="11" style="stroke:#181818;stroke-width:1.0;"/><path d="M78.4688,553.6952 Q77.8906,553.992 77.25,554.1327 Q76.6094,554.2889 75.9063,554.2889 Q73.4063,554.2889 72.0781,552.6483 Q70.7656,550.992 70.7656,547.867 Q70.7656,544.742 72.0781,543.0858 Q73.4063,541.4295 75.9063,541.4295 Q76.6094,541.4295 77.25,541.5858 Q77.9063,541.742 78.4688,542.0389 L78.4688,544.7577 Q77.8438,544.1795 77.25,543.9139 Q76.6563,543.6327 76.0313,543.6327 Q74.6875,543.6327 74,544.7108 Q73.3125,545.7733 73.3125,547.867 Q73.3125,549.9608 74,551.0389 Q74.6875,552.1014 76.0313,552.1014 Q76.6563,552.1014 77.25,551.8358 Q77.8438,551.5545 78.4688,550.9764 L78.4688,553.6952 Z " fill="#000000"/><text fill="#D9B8FF" font-family="Helvetica" font-size="17" lengthAdjust="spacing" textLength="197" x="94.5" y="553.9398">kubernetes_namespace</text></g><!--class kubernetes_resource--><g id="elem_kubernetes_resource"><rect codeLine="26" fill="#3D176E" height="39.7891" id="kubernetes_resource" rx="2.5" ry="2.5" style="stroke:#000D19;stroke-width:0.5;" width="216" x="7" y="267.58"/><ellipse cx="22" cy="287.4745" fill="#ADD1B2" rx="11" ry="11" style="stroke:#181818;stroke-width:1.0;"/><path d="M24.9688,293.1152 Q24.3906,293.412 23.75,293.5527 Q23.1094,293.7089 22.4063,293.7089 Q19.9063,293.7089 18.5781,292.0683 Q17.2656,290.412 17.2656,287.287 Q17.2656,284.162 18.5781,282.5058 Q19.9063,280.8495 22.4063,280.8495 Q23.1094,280.8495 23.75,281.0058 Q24.4063,281.162 24.9688,281.4589 L24.9688,284.1777 Q24.3438,283.5995 23.75,283.3339 Q23.1563,283.0527 22.5313,283.0527 Q21.1875,283.0527 20.5,284.1308 Q19.8125,285.1933 19.8125,287.287 Q19.8125,289.3808 20.5,290.4589 Q21.1875,291.5214 22.5313,291.5214 Q23.1563,291.5214 23.75,291.2558 Q24.3438,290.9745 24.9688,290.3964 L24.9688,293.1152 Z " fill="#000000"/><text fill="#D9B8FF" font-family="Helvetica" font-size="17" lengthAdjust="spacing" textLength="174" x="41" y="293.3598">kubernetes_resource</text></g><!--class phantom_resource--><g id="elem_phantom_resource"><rect codeLine="29" fill="#3D176E" height="39.7891" id="phantom_resource" rx="2.5" ry="2.5" style="stroke:#000D19;stroke-width:0.5;" width="198" x="174" y="167.79"/><ellipse cx="189" cy="187.6845" fill="#ADD1B2" rx="11" ry="11" style="stroke:#181818;stroke-width:1.0;"/><path d="M191.9688,193.3252 Q191.3906,193.622 190.75,193.7627 Q190.1094,193.9189 189.4063,193.9189 Q186.9063,193.9189 185.5781,192.2783 Q184.2656,190.622 184.2656,187.497 Q184.2656,184.372 185.5781,182.7158 Q186.9063,181.0595 189.4063,181.0595 Q190.1094,181.0595 190.75,181.2158 Q191.4063,181.372 191.9688,181.6689 L191.9688,184.3877 Q191.3438,183.8095 190.75,183.5439 Q190.1563,183.2627 189.5313,183.2627 Q188.1875,183.2627 187.5,184.3408 Q186.8125,185.4033 186.8125,187.497 Q186.8125,189.5908 187.5,190.6689 Q188.1875,191.7314 189.5313,191.7314 Q190.1563,191.7314 190.75,191.4658 Q191.3438,191.1845 191.9688,190.6064 L191.9688,193.3252 Z " fill="#000000"/><text fill="#D9B8FF" font-family="Helvetica" font-size="17" lengthAdjust="spacing" textLength="156" x="208" y="193.5698">phantom_resource</text></g><!--class region--><g id="elem_region"><rect codeLine="32" fill="#3D176E" height="39.7891" id="region" rx="2.5" ry="2.5" style="stroke:#000D19;stroke-width:0.5;" width="95" x="212.5" y="367.37"/><ellipse cx="227.5" cy="387.2645" fill="#ADD1B2" rx="11" ry="11" style="stroke:#181818;stroke-width:1.0;"/><path d="M230.4688,392.9052 Q229.8906,393.202 229.25,393.3427 Q228.6094,393.4989 227.9063,393.4989 Q225.4063,393.4989 224.0781,391.8583 Q222.7656,390.202 222.7656,387.077 Q222.7656,383.952 224.0781,382.2958 Q225.4063,380.6395 227.9063,380.6395 Q228.6094,380.6395 229.25,380.7958 Q229.9063,380.952 230.4688,381.2489 L230.4688,383.9677 Q229.8438,383.3895 229.25,383.1239 Q228.6563,382.8427 228.0313,382.8427 Q226.6875,382.8427 226,383.9208 Q225.3125,384.9833 225.3125,387.077 Q225.3125,389.1708 226,390.2489 Q226.6875,391.3114 228.0313,391.3114 Q228.6563,391.3114 229.25,391.0458 Q229.8438,390.7645 230.4688,390.1864 L230.4688,392.9052 Z " fill="#000000"/><text fill="#D9B8FF" font-family="Helvetica" font-size="17" lengthAdjust="spacing" textLength="53" x="246.5" y="393.1498">region</text></g><!--class resource--><g id="elem_resource"><rect codeLine="35" fill="#3D176E" height="39.7891" id="resource" rx="2.5" ry="2.5" style="stroke:#000D19;stroke-width:0.5;" width="113" x="97.5" y="7"/><ellipse cx="112.5" cy="26.8945" fill="#ADD1B2" rx="11" ry="11" style="stroke:#181818;stroke-width:1.0;"/><path d="M115.4688,32.5352 Q114.8906,32.832 114.25,32.9727 Q113.6094,33.1289 112.9063,33.1289 Q110.4063,33.1289 109.0781,31.4883 Q107.7656,29.832 107.7656,26.707 Q107.7656,23.582 109.0781,21.9258 Q110.4063,20.2695 112.9063,20.2695 Q113.6094,20.2695 114.25,20.4258 Q114.9063,20.582 115.4688,20.8789 L115.4688,23.5977 Q114.8438,23.0195 114.25,22.7539 Q113.6563,22.4727 113.0313,22.4727 Q111.6875,22.4727 111,23.5508 Q110.3125,24.6133 110.3125,26.707 Q110.3125,28.8008 111,29.8789 Q111.6875,30.9414 113.0313,30.9414 Q113.6563,30.9414 114.25,30.6758 Q114.8438,30.3945 115.4688,29.8164 L115.4688,32.5352 Z " fill="#000000"/><text fill="#D9B8FF" font-family="Helvetica" font-size="17" lengthAdjust="spacing" textLength="71" x="131.5" y="32.7798">resource</text></g><!--reverse link kubernetes_resource to kubernetes_namespace--><g id="link_kubernetes_resource_kubernetes_namespace"><path codeLine="38" d="M124.168,324.947 C136.158,372.647 163.03,479.56 175.13,527.66 " fill="none" id="kubernetes_resource-backto-kubernetes_namespace" style="stroke:#FFAF37;stroke-width:2.0;"/><polygon fill="none" points="119.78,307.49,118.349,326.4096,129.987,323.4843,119.78,307.49" style="stroke:#FFAF37;stroke-width:2.0;"/></g><!--reverse link region to kubernetes_namespace--><g id="link_region_kubernetes_namespace"><path codeLine="39" d="M242.2496,423.4943 C226.8696,454.0143 205.08,497.27 189.68,527.83 " fill="none" id="region-backto-kubernetes_namespace" style="stroke:#FFAF37;stroke-width:2.0;"/><polygon fill="none" points="250.35,407.42,236.8915,420.7942,247.6077,426.1945,250.35,407.42" style="stroke:#FFAF37;stroke-width:2.0;"/></g><!--reverse link resource to kubernetes_resource--><g id="link_resource_kubernetes_resource"><path codeLine="40" d="M148.4476,64.709 C141.2576,112.419 125.18,218.98 117.92,267.08 " fill="none" id="resource-backto-kubernetes_resource" style="stroke:#FFAF37;stroke-width:2.0;"/><polygon fill="none" points="151.13,46.91,142.5146,63.8149,154.3807,65.6031,151.13,46.91" style="stroke:#FFAF37;stroke-width:2.0;"/></g><!--reverse link resource to phantom_resource--><g id="link_resource_phantom_resource"><path codeLine="41" d="M179.147,61.4523 C202.027,91.9723 235.69,136.9 258.59,167.47 " fill="none" id="resource-backto-phantom_resource" style="stroke:#FFAF37;stroke-width:2.0;"/><polygon fill="none" points="168.35,47.05,174.3462,65.0513,183.9477,57.8533,168.35,47.05" style="stroke:#FFAF37;stroke-width:2.0;"/></g><!--reverse link phantom_resource to region--><g id="link_phantom_resource_region"><path codeLine="42" d="M270.5459,225.951 C268.0559,263.721 263.76,329.05 261.28,366.88 " fill="none" id="phantom_resource-backto-region" style="stroke:#FFAF37;stroke-width:2.0;"/><polygon fill="none" points="271.73,207.99,264.5589,225.5563,276.5329,226.3457,271.73,207.99" style="stroke:#FFAF37;stroke-width:2.0;"/></g><!--SRC=[XPBDRi8m48JlVWfBd952KHkGUg58LNj1LUczCl4wiPBOqNfJH7_UlQ61ojW1hZkVPcTMMsW97Eg6Tho6UWFec2krQGIAcYyGxNPfAujyf9HGqpGK7wsXgy1ArC2VeFe0qfa8YRT2PwK1v_YD9ps8hCpHjaRszeJ2k4u2Gnwrh8Hp2oBKcvR02oFdcvbI8HcQZgPoajv1X5cKW0SaIH8vcOV8rLKNU_yJQ_q9VE8VRMK9efZHYZ_gOiezuOMCYXxrinbVX9JQvFpMcxtscT00dipNXP1skwULg9o_nX4WMDeri8nQmNmcLJe8Fv-3MRO_7I_RxbCD4BXtqnNe7YC3_iNOJwmZEDlYgTmKmf2j1pM4N5jpEl6f8Ulxx_5uF1YA7Umk4kTSZag8XF5PrAVd-jti5m00]--></g></svg>

<svg xmlns="http://www.w3.org/2000/svg" width="379" height="573" viewBox="0 0 379 573"><rect width="239" height="39.789" x="60.5" y="528.16" fill="#3D176E" rx="2.5" ry="2.5" style="stroke:#000d19;stroke-width:.5"/><circle cx="75.5" cy="548.054" r="11" fill="#ADD1B2" style="stroke:#181818;stroke-width:1"/><path d="M78.469 553.695q-.578.297-1.219.438-.64.156-1.344.156-2.5 0-3.828-1.64-1.312-1.657-1.312-4.782t1.312-4.781q1.328-1.657 3.828-1.657.703 0 1.344.157.656.156 1.219.453v2.719q-.625-.579-1.219-.844-.594-.281-1.219-.281-1.344 0-2.031 1.078-.687 1.062-.687 3.156t.687 3.172q.688 1.062 2.031 1.062.625 0 1.219-.265.594-.282 1.219-.86z"/><text x="94.5" y="553.94" fill="#D9B8FF" font-family="Helvetica" font-size="17" textLength="197">kubernetes_namespace</text><rect width="216" height="39.789" x="7" y="267.58" fill="#3D176E" rx="2.5" ry="2.5" style="stroke:#000d19;stroke-width:.5"/><circle cx="22" cy="287.474" r="11" fill="#ADD1B2" style="stroke:#181818;stroke-width:1"/><path d="M24.969 293.115q-.578.297-1.219.438-.64.156-1.344.156-2.5 0-3.828-1.64-1.312-1.657-1.312-4.782t1.312-4.781q1.328-1.656 3.828-1.656.703 0 1.344.156.656.156 1.219.453v2.719q-.625-.579-1.219-.844-.594-.281-1.219-.281-1.343 0-2.031 1.078-.687 1.062-.687 3.156t.687 3.172q.688 1.062 2.031 1.062.625 0 1.219-.265.594-.281 1.219-.86z"/><text x="41" y="293.36" fill="#D9B8FF" font-family="Helvetica" font-size="17" textLength="174">kubernetes_resource</text><rect width="198" height="39.789" x="174" y="167.79" fill="#3D176E" rx="2.5" ry="2.5" style="stroke:#000d19;stroke-width:.5"/><circle cx="189" cy="187.685" r="11" fill="#ADD1B2" style="stroke:#181818;stroke-width:1"/><path d="M191.969 193.325q-.578.297-1.219.438-.64.156-1.344.156-2.5 0-3.828-1.64-1.312-1.657-1.312-4.782t1.312-4.781q1.328-1.656 3.828-1.656.703 0 1.344.156.656.156 1.219.453v2.719q-.625-.578-1.219-.844-.594-.281-1.219-.281-1.344 0-2.031 1.078-.687 1.062-.687 3.156t.687 3.172q.688 1.062 2.031 1.062.625 0 1.219-.265.594-.281 1.219-.86z"/><text x="208" y="193.57" fill="#D9B8FF" font-family="Helvetica" font-size="17" textLength="156">phantom_resource</text><rect width="95" height="39.789" x="212.5" y="367.37" fill="#3D176E" rx="2.5" ry="2.5" style="stroke:#000d19;stroke-width:.5"/><circle cx="227.5" cy="387.264" r="11" fill="#ADD1B2" style="stroke:#181818;stroke-width:1"/><path d="M230.469 392.905q-.578.297-1.219.438-.64.156-1.344.156-2.5 0-3.828-1.64-1.312-1.657-1.312-4.782t1.312-4.781q1.328-1.656 3.828-1.656.703 0 1.344.156.656.156 1.219.453v2.719q-.625-.579-1.219-.844-.594-.281-1.219-.281-1.344 0-2.031 1.078-.687 1.062-.687 3.156t.687 3.172q.688 1.062 2.031 1.062.625 0 1.219-.265.594-.281 1.219-.86z"/><text x="246.5" y="393.15" fill="#D9B8FF" font-family="Helvetica" font-size="17" textLength="53">region</text><rect width="113" height="39.789" x="97.5" y="7" fill="#3D176E" rx="2.5" ry="2.5" style="stroke:#000d19;stroke-width:.5"/><circle cx="112.5" cy="26.895" r="11" fill="#ADD1B2" style="stroke:#181818;stroke-width:1"/><path d="M115.469 32.535q-.578.297-1.219.438-.64.156-1.344.156-2.5 0-3.828-1.64-1.312-1.657-1.312-4.782t1.312-4.781q1.328-1.656 3.828-1.656.703 0 1.344.156.656.156 1.219.453v2.719q-.625-.578-1.219-.844-.594-.281-1.219-.281-1.344 0-2.031 1.078-.687 1.062-.687 3.156t.687 3.172q.688 1.062 2.031 1.062.625 0 1.219-.265.594-.281 1.219-.86z"/><text x="131.5" y="32.78" fill="#D9B8FF" font-family="Helvetica" font-size="17" textLength="71">resource</text><g fill="none"><path d="M124.168 324.947c11.99 47.7 38.862 154.613 50.962 202.713" style="stroke:#ffaf37;stroke-width:2"/><path d="m119.78 307.49-1.431 18.92 11.638-2.926z" style="stroke:#ffaf37;stroke-width:2"/></g><g fill="none"><path d="M242.25 423.494c-15.38 30.52-37.17 73.776-52.57 104.336" style="stroke:#ffaf37;stroke-width:2"/><path d="m250.35 407.42-13.458 13.374 10.716 5.4z" style="stroke:#ffaf37;stroke-width:2"/></g><path fill="none" d="M148.448 64.709c-7.19 47.71-23.268 154.271-30.528 202.371m33.21-220.17-8.615 16.905 11.866 1.788z" style="stroke:#ffaf37;stroke-width:2"/><g fill="none"><path d="M179.147 61.452c22.88 30.52 56.543 75.448 79.443 106.018" style="stroke:#ffaf37;stroke-width:2"/><path d="m168.35 47.05 5.996 18.001 9.602-7.198z" style="stroke:#ffaf37;stroke-width:2"/></g><g fill="none"><path d="M270.546 225.951c-2.49 37.77-6.786 103.099-9.266 140.929" style="stroke:#ffaf37;stroke-width:2"/><path d="m271.73 207.99-7.171 17.566 11.974.79z" style="stroke:#ffaf37;stroke-width:2"/></g></svg>
